!!!COM: Vivaldi, Antonio
!!!OTL: Concerto a violino solo, No. 7
!!!XEN: Violin Concerto No. 7 in D minor
!!!OPR: Il Cimento dell'armonia e dell'inventione
!!!XEN: The Contest of Harmony and Invention
!!!OPS: Opus 8
!!!ONM: No. 7
!!!OMV: Movement 3.
!!!YEC: Copyright 1996, Center for Computer Assisted Research in the Humanities
!!!YEM: Rights to all derivative electronic formats reserved.
!!!YEM: Refer to licensing agreement for important restrictions.
!!!OMD: Allegro
**kern	**kern	**kern	**kern	**kern	**Bnum
*Icello	*Iviola	*Ivioln	*Ivioln	*Ivioln	*Icemba
*Icemba	*	*	*	*	*
*ICstr	*ICstr	*ICstr	*ICstr	*ICstr	*ICklav
*ICklav	*	*	*	*	*
!cello	!viola 	!violino 2	!violino 1	!violino principale	!continuo
!basso continuo	!	!	!	!	!
*clefF4	*clefC3	*clefG2	*clefG2	*clefG2	*
*k[b-]	*k[b-]	*k[b-]	*k[b-]	*k[b-]	*k[b-]
*d:	*d:	*d:	*d:	*d:	*d:
*M3/4	*M3/4	*M3/4	*M3/4	*M3/4	*M3/4
=1-	=1-	=1-	=1-	=1-	=1-
4D\	4f\	8aa\L	8aa\L	8aa\L	.
.	.	16dd\L	16dd\L	16dd\L	.
.	.	16ee\JJ	16ee\JJ	16ee\JJ	.
4D\	4f\	8ff\L	8ff\L	8ff\L	.
.	.	8ee\J	8ee\J	8ee\J	.
4D\	4f\	8ff\L	8ff\L	8ff\L	.
.	.	8dd\J	8dd\J	8dd\J	.
=2	=2	=2	=2	=2	=2
4C/	4e\	8aa\L	8aa\L	8aa\L	6
.	.	16a\L	16a\L	16a\L	.
.	.	16b-\JJ	16b-\JJ	16b-\JJ	.
4C/	4e\	8cc\L	8cc\L	8cc\L	.
.	.	8b-\J	8b-\J	8b-\J	.
4C/	4e\	8cc\L	8cc\L	8cc\L	.
.	.	8a\J	8a\J	8a\J	.
=3	=3	=3	=3	=3	=3
4BB-/	4d\	8dd/L	8dd/L	8dd/L	7
.	.	16d/L	16d/L	16d/L	.
.	.	16e/JJ	16e/JJ	16e/JJ	.
4BB-/	4d\	8f/L	8f/L	8f/L	.
.	.	8e/J	8e/J	8e/J	.
4BB-/	4d\	8f/L	8f/L	8f/L	.
.	.	8d/J	8d/J	8d/J	.
=4	=4	=4	=4	=4	=4
4AA/	4c#\	8a\L	8a\L	8a\L	7 #
.	.	16cc#\L	16cc#\L	16cc#\L	.
.	.	16dd\JJ	16dd\JJ	16dd\JJ	.
4AA/	4c#\	8ee\L	8ee\L	8ee\L	.
.	.	8ff\J	8ff\J	8ff\J	.
4AA/	4c#\	8gg\L	8gg\L	8gg\L	.
.	.	8aa\J	8aa\J	8aa\J	.
=5	=5	=5	=5	=5	=5
8D\L	8A\L	[2.ff\	4ff\	4ff\	.
16d\L	16f\L	.	.	.	.
16e\JJ	16g\JJ	.	.	.	.
8f\L	8a\L	.	4dd\	4dd\	6
8e\J	8g\J	.	.	.	.
8f\L	8a\L	.	4r	4r	.
8d\J	8f\J	.	.	.	.
=6	=6	=6	=6	=6	=6
8G\L	2d\	8ff\L]	[2.bb-\	[2.bb-\	7
16G\L	.	16b-\L	.	.	.
16A\JJ	.	16cc\JJ	.	.	.
8B-\L	.	8dd\L	.	.	.
8A\J	.	8cc\J	.	.	.
8B-\L	4b-\	8dd\L	.	.	.
8G\J	.	8b-\J	.	.	.
=7	=7	=7	=7	=7	=7
8c\L	2g\	[2.ee\	8bb-\L]	8bb-\L]	7
16c\L	.	.	16ee\L	16ee\L	.
16d\JJ	.	.	16ff\JJ	16ff\JJ	.
8e\L	.	.	8gg\L	8gg\L	.
8d\J	.	.	8ff\J	8ff\J	.
8e\L	4e\	.	8gg\L	8gg\L	.
8c\J	.	.	8ee\J	8ee\J	.
=8	=8	=8	=8	=8	=8
8F\L	2c\	8ee\L]	[2.aa\	[2.aa\	7
16F\L	.	16a\L	.	.	.
16G\JJ	.	16b-\JJ	.	.	.
8A\L	.	8cc\L	.	.	.
8G\J	.	8b-\J	.	.	.
8A\L	4a\	8cc\L	.	.	.
8F\J	.	8a\J	.	.	.
=9	=9	=9	=9	=9	=9
8B-\L	2f\	[2.dd\	8aa\L]	8aa\L]	7
16B-\L	.	.	16dd\L	16dd\L	.
16c\JJ	.	.	16ee\JJ	16ee\JJ	.
8d\L	.	.	8ff\L	8ff\L	.
8c\J	.	.	8ee\J	8ee\J	.
8d\L	4d\	.	8ff\L	8ff\L	.
8B-\J	.	.	8dd\J	8dd\J	.
=10	=10	=10	=10	=10	=10
8E\L	2B-/	8dd\L]	[2.gg\	[2.gg\	7
16E\L	.	16g\L	.	.	.
16F\JJ	.	16a\JJ	.	.	.
8G\L	.	8b-/L	.	.	.
8F\J	.	8a/J	.	.	.
8G\L	4g\	8b-/L	.	.	.
8E\J	.	8g/J	.	.	.
=11	=11	=11	=11	=11	=11
8AA\L	2e\	[2.cc#\	8gg\L]	8gg\L]	7 #
16A\L	.	.	16cc#\L	16cc#\L	.
16Bn\JJ	.	.	16dd\JJ	16dd\JJ	.
8c#\L	.	.	8ee\L	8ee\L	.
8B\J	.	.	8dd\J	8dd\J	.
8c#\L	4g\	.	8ee\L	8ee\L	.
8A\J	.	.	8cc#\J	8cc#\J	.
=12	=12	=12	=12	=12	=12
8AA\L	2e\	8cc#\L]	(4g/	(4g/	7 #
16A\L	.	16cc#\L	.	.	.
16Bn\JJ	.	16dd\JJ	.	.	.
8c#\L	.	8ee\L	4cc#\)	4cc#\)	.
8B\J	.	8dd\J	.	.	.
8c#\L	4g\	8ee\L	4ee\	4ee\	.
8A\J	.	8cc#\J	.	.	.
=13	=13	=13	=13	=13	=13
8AA\L	2e\	(4g/	8gg\L	8gg\L	7 #
16A\L	.	.	16cc#\L	16cc#\L	.
16Bn\JJ	.	.	16dd\JJ	16dd\JJ	.
8c#\L	.	4cc#\)	8ee\L	8ee\L	.
8B\J	.	.	8dd\J	8dd\J	.
8c#\L	4g\	4ee\	8ee\L	8ee\L	.
8A\J	.	.	8cc#\J	8cc#\J	.
=14	=14	=14	=14	=14	=14
8AA\L	2e\	8gg\L	(4g/	(4g/	7 #
16A\L	.	16cc#\L	.	.	.
16Bn\JJ	.	16dd\JJ	.	.	.
8c#\L	.	8ee\L	4cc#\)	4cc#\)	.
8B\J	.	8dd\J	.	.	.
8c#\L	4g\	8ee\L	4ee\	4ee\	.
8A\J	.	8cc#\J	.	.	.
=15	=15	=15	=15	=15	=15
4AA/	4c#\	8ee\L	8gg\L	8gg\L	7 #
.	.	16cc#\L	16ee\L	16ee\L	.
.	.	16dd\JJ	16ff\JJ	16ff\JJ	.
4AA/	4c#\	8ee\L	8gg\L	8gg\L	.
.	.	8dd\J	8ff\J	8ff\J	.
4AA/	4c#\	8ee\L	8gg\L	8gg\L	.
.	.	8cc#\J	8ee\J	8ee\J	.
=16	=16	=16	=16	=16	=16
4D\	4A/	4dd\	4ff\	4ff\	.
4GG/	4b-\	4ee\	4gg\	4gg\	6 5
4AA/	4a\	4cc#\	4ee\	4ee\	#
=17	=17	=17	=17	=17	=17
4D\	4a\ 4f\	4dd\	4dd\	12dd\L	.
.	.	.	.	(24ff\L	.
.	.	.	.	24gg\)	.
.	.	.	.	(24aa\	.
.	.	.	.	24gg\JJ)	.
4r	4r	4r	12aa\L	12ff\L	.
.	.	.	12bb-\	12gg\	.
.	.	.	12gg\J	12ee\J	.
4r	4r	4r	12ff\L	12dd\L	.
.	.	.	12gg\	12ee\	.
.	.	.	12ee\J	12cc#\J	.
=18	=18	=18	=18	=18	=18
4D\	2.r	2.r	4ff\	12dd/L	.
.	.	.	.	(24cc/L	.
.	.	.	.	24b-/)	.
.	.	.	.	(24a/	.
.	.	.	.	24g/JJ)	.
4r	.	.	12a/L	12f/L	.
.	.	.	12b-/	12g/	.
.	.	.	12g/J	12e/J	.
4r	.	.	12a/L	12f/L	.
.	.	.	12b-/	12g/	.
.	.	.	12g/J	12e/J	.
=19	=19	=19	=19	=19	=19
4D\	2.r	2.r	4a/	12f/L	.
.	.	.	.	(24d/L	.
.	.	.	.	24e/)	.
.	.	.	.	(24f/	.
.	.	.	.	24g/JJ)	.
4r	.	.	4r	12a\L	.
.	.	.	.	12bn\	.
.	.	.	.	12cc#\J	.
4r	.	.	4r	12dd\L	.
.	.	.	.	12ee\	.
.	.	.	.	12ff\J	.
=20	=20	=20	=20	=20	=20
4AA/	2.r	8r	8r	4ee\	#
.	.	8cc#\	8ee\	.	.
8r	.	4ff\	4aa\	8r	.
8D\	.	.	.	8dd\ 8ff/	.
8AA/L	.	4r	4r	8cc#\ 8ee/L	.
8D/J	.	.	.	8dd\ 8ff/J	.
=21	=21	=21	=21	=21	=21
8AA/L	2.r	2.r	2.r	8cc#\ 8ee/L	#
8D/	.	.	.	8dd\ 8ff/	.
8AA/	.	.	.	8cc#\ 8ee/	.
8D/	.	.	.	8dd\ 8ff/	.
8AA/	.	.	.	8ee\ 8gg/	.
8D/J	.	.	.	8dd\ 8ff/J	.
=22	=22	=22	=22	=22	=22
8GG#/L	2.r	8r	8r	8dd\ 8ff/L	7 5
8AA/J	.	8cc#\	8ee\	8cc#\ 8ee/J	#
8r	.	4ff\	4aa\	8r	.
8D\	.	.	.	8dd\ 8ff/	.
8AA/L	.	4r	4r	8cc#\ 8ee/L	#
8D/J	.	.	.	8dd\ 8ff/J	.
=23	=23	=23	=23	=23	=23
8AA/L	2.r	2.r	2.r	8cc#\ 8ee/L	#
8D/	.	.	.	8dd\ 8ff/	.
8AA/	.	.	.	8cc#\ 8ee/	.
8D/	.	.	.	8dd\ 8ff/	.
8AA/	.	.	.	8ee\ 8gg/	.
8D/J	.	.	.	8dd\ 8ff/J	.
=24	=24	=24	=24	=24	=24
8GG#/L	2.r	8r	8r	8dd\ 8ff/L	7 5
8AA/J	.	8cc#\	8ee\	8cc#\ 8ee/J	#
8r	.	4ff\	4aa\	8r	.
8D\	.	.	.	8ff\ 8aa/	.
8C#/L	.	4r	4r	8gg\ 8bb-/L	7 5
8D/J	.	.	.	8ff\ 8aa/J	.
=25	=25	=25	=25	=25	=25
8C#/L	2.r	2.r	2.r	8gg\ 8bb-/L	7 5
8D/	.	.	.	8ff\ 8aa/	.
8C#/	.	.	.	8gg\ 8bb-/	.
8D/	.	.	.	8ff\ 8aa/	.
8C#/	.	.	.	8gg\ 8bb-/	.
8D/J	.	.	.	8ff\ 8aa/J	.
=26	=26	=26	=26	=26	=26
4C#/	2.r	8r	8r	4gg\ 4bb-/	7 5
.	.	8ee\	8gg\	.	.
8r	.	4gg\	4bb-\	8r	.
8AA/	.	.	.	8e\ 8g/	.
8D/L	.	4r	4r	8f\ 8a/L	.
8AA/J	.	.	.	8e\ 8g/J	.
=27	=27	=27	=27	=27	=27
8D/L	2.r	2.r	2.r	8f\ 8a/L	.
8AA/	.	.	.	8e\ 8g/	.
8D/	.	.	.	8f\ 8a/	.
8AA/	.	.	.	8e\ 8g/	.
8D/	.	.	.	8f\ 8a/	.
8AA/J	.	.	.	8e\ 8g/J	.
=28	=28	=28	=28	=28	=28
4D\	2.r	8r	8r	4d\ 4f/	.
.	.	8dd\	8ff\	.	.
8r	.	4ff\	4aa\	8r	.
8D\	.	.	.	8dd\ 8ff/	.
8C#/L	.	4r	4r	8ee\ 8gg/L	.
8D/J	.	.	.	8dd\ 8ff/J	.
=29	=29	=29	=29	=29	=29
8C#/L	2.r	2.r	2.r	8ee\ 8gg/L	.
8D/	.	.	.	8dd\ 8ff/	.
8C#/	.	.	.	8ee\ 8gg/	.
8D/	.	.	.	8dd\ 8ff/	.
8C#/	.	.	.	8ee\ 8gg/	.
8D/J	.	.	.	8dd\ 8ff/J	.
=30	=30	=30	=30	=30	=30
4AA/	2.r	8r	8r	4ee\ 4gg/	#
.	.	8cc#\	8ee\	.	.
8r	.	4ee\	4gg\	8r	.
8AA/	.	.	.	8c#\ 8e/	.
8D/L	.	4r	4r	8d\ 8f/L	.
8AA/J	.	.	.	8c#\ 8e/J	.
=31	=31	=31	=31	=31	=31
8D/L	2.r	2.r	2.r	8d\ 8f/L	.
8AA/	.	.	.	8c#\ 8e/	.
8D/	.	.	.	8d\ 8f/	.
8AA/	.	.	.	8c#\ 8e/	.
8D/	.	.	.	8d\ 8f/	.
8AA/J	.	.	.	8Bn\ 8d/J	.
=32	=32	=32	=32	=32	=32
4AA/	2.r	4r	8r	8c#\ 8e/L	.
.	.	.	8ee\	8cc#\ 8aa/	.
4r	.	8r	4aa\	8e\ 8cc#/	.
.	.	8ee\	.	8cc#\ 8aa/	.
4r	.	4aa\	8r	8e\ 8cc#/	.
.	.	.	8ee\	8cc#\ 8aa/J	.
=33	=33	=33	=33	=33	=33
4D\	2.r	2.r	4aa\	8a\ 8ff#/L	#
.	.	.	.	8f#\ 8dd/	.
4r	.	.	2r	8A\ 8f#/	.
.	.	.	.	8f#\ 8dd/	.
4r	.	.	.	8A\ 8f#/	.
.	.	.	.	8f#\ 8dd/J	.
=34	=34	=34	=34	=34	=34
4G\	2.r	4r	8r	8g\ 8bn/L	n
.	.	.	8dd\	8b\ 8gg/	.
4r	.	8r	4gg\	8d\ 8b/	.
.	.	8dd\	.	8b\ 8gg/	.
4r	.	4gg\	8r	8d\ 8b/	.
.	.	.	8dd\	8b\ 8gg/J	.
=35	=35	=35	=35	=35	=35
4C/	2.r	2.r	4gg\	8cc\ 8ee/L	.
.	.	.	.	8e\ 8cc/	.
4r	.	.	2r	8G\ 8e/	.
.	.	.	.	8e\ 8cc/	.
4r	.	.	.	8G\ 8e/	.
.	.	.	.	8e\ 8cc/J	.
=36	=36	=36	=36	=36	=36
4F\	2.r	4r	8r	8f\ 8a/L	.
.	.	.	8cc\	8a\ 8ff/	.
4r	.	8r	4ff\	8a\ 8cc/	.
.	.	8cc\	.	8a\ 8ff/	.
4r	.	4ff\	8r	8a\ 8cc/	.
.	.	.	8cc\	8a\ 8ff/J	.
=37	=37	=37	=37	=37	=37
4E\	2.r	8r	8ee/L	8g#\ 8bn/L	#
.	.	8g#/L	8g#/	8b\ 8ee/	.
4r	.	8g#/	8g#/	8g#\ 8b/	.
.	.	8g#/	8g#/	8b\ 8ee/	.
4r	.	8g#/	8g#/	8g#\ 8b/	.
.	.	8g#/J	8g#/J	8b\ 8ee/J	.
=38	=38	=38	=38	=38	=38
2.r	2.r	8gn/L	8gn/L	8gn\ 8bn/L	.
.	.	8g/	8g/	8b\ 8ee/	.
.	.	8g/	8g/	8g\ 8b/	.
.	.	8g/	8g/	8b\ 8ee/	.
.	.	8g/	8g/	8g\ 8b/	.
.	.	8g/J	8g/J	8b\ 8ee/J	.
=39	=39	=39	=39	=39	=39
2.r	2.r	8f#/L	8f#/L	8f#\ 8a/L	.
.	.	8f#/	8f#/	8a\ 8ee/	.
.	.	8f#/	8f#/	8f#\ 8a/	.
.	.	8f#/	8f#/	8a\ 8ee/	.
.	.	8f#/	8f#/	8f#\ 8a/	.
.	.	8f#/J	8f#/J	8a\ 8ee/J	.
=40	=40	=40	=40	=40	=40
2.r	2.r	8fn/L	8fn/L	8fn\ 8a/L	.
.	.	8f/	8f/	8f\ 8dd/	.
.	.	8f/	8f/	8A\ 8f/	.
.	.	8f/	8f/	8f\ 8dd/	.
.	.	8f/	8f/	8A\ 8f/	.
.	.	8f/J	8f/J	8f\ 8dd/J	.
=41	=41	=41	=41	=41	=41
8r	2.r	4e/	4e/	4Bn\ 4g#/ 4dd/	.
8E\	.	.	.	.	.
8A\L	.	4r	4r	16r	.
.	.	.	.	(16a\LL	.
8E\J	.	.	.	16bn\	.
.	.	.	.	16cc\JJ	.
8C/L	.	4r	4r	16dd\LL	.
.	.	.	.	16ee\	.
8BBn/J	.	.	.	16ff#\	.
.	.	.	.	16gg#\JJ)	.
=42	=42	=42	=42	=42	=42
4AA/	2.r	2.r	2.r	8aa\L	.
.	.	.	.	8a\J	.
*	*	*	*	*^	*
4E\	.	.	.	2e	4.bnt/	4
4EE/	.	.	.	.	.	#
.	.	.	.	.	8a/	.
*	*	*	*	*v	*v	*
=43	=43	=43	=43	=43	=43
4A\	4c\	8a/L	8a/L	8a/L	.
.	.	16a/L	16a/L	16a/L	.
.	.	16bn/JJ	16bn/JJ	16bn/JJ	.
4A\	4c\	8cc\L	8cc\L	8cc\L	.
.	.	8b\J	8bn\J	8b\J	.
4A\	4c\	8cc\L	8cc\L	8cc\L	.
.	.	8a\J	8a\J	8a\J	.
=44	=44	=44	=44	=44	=44
4G\	4Bn/	8ee\L	8ee\L	8ee\L	6
.	.	16ee\L	16ee\L	16ee\L	.
.	.	16ff\JJ	16ff\JJ	16ff\JJ	.
4G\	4B/	8gg\L	8gg\L	8gg\L	.
*	*	*	*	*strophe	*
*	*	*	*	*^	*
*	*	*	*	*S/S	*S/A	*
.	.	8ff\J	8ff\J	8ff\J	8ee\J	.
*	*	*	*	*S/fin	*S/fin	*
*	*	*	*	*v	*v	*
*	*	*	*	*S-	*
4G\	4B/	8gg\L	8gg\L	8gg\L	.
.	.	8ee\J	8ee\J	8ee\J	.
=45	=45	=45	=45	=45	=45
4F\	4A/	8aa\L	8aa\L	8aa\L	7
.	.	16a\L	16a\L	16a\L	.
.	.	16bn\JJ	16bn\JJ	16bn\JJ	.
4F\	4A/	8cc\L	8cc\L	8cc\L	.
.	.	8b\J	8b\J	8b\J	.
4F\	4a\	8cc\L	8cc\L	8cc\L	6
.	.	8a\J	8a\J	8a\J	.
=46	=46	=46	=46	=46	=46
4E\	4g#\	8ee\L	8ee\L	8ee\L	#
.	.	16g#\L	16g#\L	16g#\L	.
.	.	16a\JJ	16a\JJ	16a\JJ	.
4E\	4g#\	8bn\L	8bn\L	8bn\L	.
.	.	8cc\J	8cc\J	8cc\J	.
4E\	4g#\	8dd\L	8dd\L	8dd\L	.
.	.	8ee\J	8ee\J	8ee\J	.
=47	=47	=47	=47	=47	=47
8A\L	4e\	[2.cc\	4cc\	4cc\	.
16A\L	.	.	.	.	.
16Bn\JJ	.	.	.	.	.
8c\L	2a\	.	4a/	4a/	.
8B\J	.	.	.	.	.
8c\L	.	.	4r	4r	.
8A\J	.	.	.	.	.
=48	=48	=48	=48	=48	=48
8D\L	2f\	8cc/L]	[2.ff\	[2.ff\	7
16D\L	.	16f/L	.	.	.
16E\JJ	.	16g/JJ	.	.	.
8F\L	.	8a/L	.	.	.
8E\J	.	8g/J	.	.	.
8F\L	4d\	8a/L	.	.	.
8D\J	.	8f/J	.	.	.
=49	=49	=49	=49	=49	=49
8G\L	2d\	[2.bn\	8ff\L]	8ff\L]	7 n
16G\L	.	.	16bn\L	16bn\L	.
16A\JJ	.	.	16cc\JJ	16cc\JJ	.
8Bn\L	.	.	8dd\L	8dd\L	.
8A\J	.	.	8cc\J	8cc\J	.
8B\L	4g\	.	8dd\L	8dd\L	.
8G\J	.	.	8b\J	8b\J	.
=50	=50	=50	=50	=50	=50
8C/L	2g\	8b/L]	[2.ee\	[2.ee\	n7
16C/L	.	16e/L	.	.	.
16D/JJ	.	16f/JJ	.	.	.
8E\L	.	8g/L	.	.	.
8D\J	.	8f/J	.	.	.
8E\L	4e\	8g/L	.	.	.
8C\J	.	8e/J	.	.	.
=51	=51	=51	=51	=51	=51
8F\L	2c\	[2.a/	8ee\L]	8ee\L]	7
16F\L	.	.	16a\L	16a\L	.
16G\JJ	.	.	16bn\JJ	16bn\JJ	.
8A\L	.	.	8cc\L	8cc\L	.
8G\J	.	.	8b\J	8b\J	.
8A\L	4f\	.	8cc\L	8cc\L	.
8F\J	.	.	8a\J	8a\J	.
=52	=52	=52	=52	=52	=52
8BBn/L	2f\	8a/L]	[2.dd\	[2.dd\	7
16BB/L	.	16d/L	.	.	.
16C/JJ	.	16e/JJ	.	.	.
8D/L	.	8f/L	.	.	.
8C/J	.	8e/J	.	.	.
8D/L	4d\	8f/L	.	.	.
8BB/J	.	8d/J	.	.	.
=53	=53	=53	=53	=53	=53
4E\	2Bn/	8g#/L	8dd\L]	8dd\L]	7 #
.	.	16g#/L	16bn\L	16bn\L	.
.	.	16a/JJ	16cc\JJ	16cc\JJ	.
4E\	.	8b/L	8dd\L	8dd\L	.
.	.	8a/J	8cc\J	8cc\J	.
4E\	4e\	8bn/L	8dd\L	8dd\L	.
.	.	8g#/J	8b\J	8b\J	.
=54	=54	=54	=54	=54	=54
4AA/	4e\	4a/	4cc\	4cc\	.
4D\	4f\	4bn\	4dd\	4dd\	6 5
4E\	4e\	4g#/	4bn\	4bn\	#
=55	=55	=55	=55	=55	=55
*	*	*	*	*^	*
4AA/	4e\	4a/	4a/	8a\L	8r	.
.	.	.	.	8cc\J	8ee/	.
4r	4r	4r	4r	8cc\L	(16aa/LL	.
.	.	.	.	.	16ee/)	.
.	.	.	.	8cc\J	(16aa/	.
.	.	.	.	.	16ee/JJ)	.
4r	4r	4r	4r	8cc\L	(16aa/LL	.
.	.	.	.	.	16ee/)	.
.	.	.	.	8cc\J	(16aa/	.
.	.	.	.	.	16ee/JJ)	.
=56	=56	=56	=56	=56	=56	=56
4D\	2.r	2.r	8r	8dd\L	8ff/L	6 5
.	.	.	8ee\	8cc\	8ee/J	.
4E\	.	.	8ee\L	8bn\	8ee/L	#
.	.	.	8ee\J	8a\	8ee/J	.
4EE/	.	.	4ee\	8b\ 8g#\	8ee/	.
.	.	.	.	8ee\J	8ry	.
=57	=57	=57	=57	=57	=57	=57
4AA/	2.r	8r	2.r	8cc\L	8ee/L	.
.	.	8ee\	.	8cc\J	8ee/J	.
4r	.	8ee\L	.	8cc\L	(16aa/LL	.
.	.	.	.	.	16ee/)	.
.	.	8ee\J	.	8cc\J	(16aa/	.
.	.	.	.	.	16ee/JJ)	.
4r	.	4ee\	.	8cc\L	(16aa/LL	.
.	.	.	.	.	16ee/)	.
.	.	.	.	8cc\J	(16aa/	.
.	.	.	.	.	16ee/JJ)	.
=58	=58	=58	=58	=58	=58	=58
4D\	2.r	2.r	8r	8dd\L	8ff/L	6 5
.	.	.	8ee\	8cc\	8ee/J	.
4E\	.	.	8ee\L	8bn\	8ee/L	#
.	.	.	8ee\J	8a\	8ee/J	.
4EE/	.	.	4ee\	8b\ 8g#\	8ee/	.
.	.	.	.	8ee\J	8ry	.
=59	=59	=59	=59	=59	=59	=59
4AA/	2.r	8r	2.r	4a\ 4cc\	4ee/	.
.	.	8ee\	.	.	.	.
8A\L	.	8ee\L	.	8ry	8r	.
8Bn\J	.	8ee\J	.	8ee\	8aa/	.
8c\L	.	4ee\	.	8ee\L	8aa/L	6
8A\J	.	.	.	8ee\J	8ccc/J	.
=60	=60	=60	=60	=60	=60	=60
4AA/	2.r	2.r	8r	8ee\L	8ccc/L	.
.	.	.	8ee\	8ee\	8aa/	.
4r	.	.	8ee\L	8ee\	8aa/	.
.	.	.	8ee\J	8a\	8ee/	.
4r	.	.	4ee\	8a\	8ee/	.
.	.	.	.	8a\J	8ff/J	.
=61	=61	=61	=61	=61	=61	=61
4D\	2.r	8r	2.r	4a\	4ff/	.
.	.	8dd\	.	.	.	.
4Bn\	.	8dd\L	.	8ry	8r	6
.	.	8dd\J	.	8dd\	8gg/	.
4G\	.	4dd\	.	8dd\L	8gg/L	.
.	.	.	.	8dd\J	8bbn/J	.
=62	=62	=62	=62	=62	=62	=62
2.BBn/	2.r	2.r	8r	8dd\L	8bbn/L	6
.	.	.	8dd\	8dd\	8gg/	.
.	.	.	8dd\L	8dd\	8gg/	.
.	.	.	8dd\J	8g\	8dd/	.
.	.	.	4dd\	8g\	8dd/	.
.	.	.	.	8g\J	8ee/J	.
=63	=63	=63	=63	=63	=63	=63
4C/	2.r	8r	2.r	4g\	4ee/	.
.	.	8cc\	.	.	.	.
4A\	.	8cc\L	.	8ry	8r	6
.	.	8cc\J	.	8cc\	8ff/	.
4F\	.	4cc\	.	8cc\L	8ff/L	.
.	.	.	.	8cc\J	8aa/J	.
=64	=64	=64	=64	=64	=64	=64
2.FF/	2.r	2.r	8r	8cc\L	8aa/L	.
.	.	.	8cc\	8cc\	8ff/	.
.	.	.	8cc\L	8cc\	8ff/	.
.	.	.	8cc\J	8f\	8cc/	.
.	.	.	4cc\	8f\	8cc/	.
.	.	.	.	8f\J	8bn/J	.
=65	=65	=65	=65	=65	=65	=65
*	*	*	*	*	*strophe	*
*	*	*	*	*	*^	*
*	*	*	*	*	*S/?	*S/?	*
4GG/	2.r	2.r	8r	4f\	4bn/	4b-x/	7
*	*	*	*	*	*S/fin	*S/fin	*
*	*	*	*	*	*v	*v	*
*	*	*	*	*	*S-	*
.	.	.	8bbn\	.	.	.
4G\	.	.	8bb\L	8ry	8r	.
.	.	.	8bb\J	8f\	8dd/	.
4BBn/	.	.	4bb\	8f\L	8dd/L	6 5
.	.	.	.	8dd\J	8ff/J	.
=66	=66	=66	=66	=66	=66	=66
2.GG/	2.r	8r	2.r	8dd\L	8ff/L	n
.	.	8ff\	.	8dd\	8bbn/	.
.	.	8ff\L	.	8dd\	8bb/	.
.	.	8ff\J	.	8ff\	8ddd/	.
.	.	4ff\	.	8ff\	8ddd/	.
.	.	.	.	8g\J	8ff/J	.
=67	=67	=67	=67	=67	=67	=67
4GG/	2.r	2.r	8r	8g\L	8ff/L	7 n
.	.	.	8dd\	8g\J	(16ff/L	.
.	.	.	.	.	16ee/JJ)	.
4G\	.	.	8dd\L	8g\L	(16ff/LL	.
.	.	.	.	.	16ee/)	.
.	.	.	8dd\J	8g\J	(16ff/	.
.	.	.	.	.	16ee/JJ)	.
4BBn/	.	.	4dd\	8g\L	8ff/L	.
.	.	.	.	8g\J	(16gg/L	.
.	.	.	.	.	16ff/JJ)	.
=68	=68	=68	=68	=68	=68	=68
2.GG/	2.r	8r	2.r	8g\L	8ee/L	n
.	.	8bn\	.	8g\J	(16ff/L	.
.	.	.	.	.	16ee/JJ)	.
.	.	8b\L	.	8g\L	(16ff/LL	.
.	.	.	.	.	16ee/)	.
.	.	8b\J	.	8g\J	(16ff/	.
.	.	.	.	.	16ee/JJ)	.
.	.	4b\	.	8g\L	8ff/L	.
.	.	.	.	8g\J	(16gg/L	.
.	.	.	.	.	16ff/JJ)	.
=69	=69	=69	=69	=69	=69	=69
4C/	2.r	2.r	8r	8g\L	8ee/L	.
.	.	.	8gg\	8cc\J	(16bb-/L	.
.	.	.	.	.	16aa/JJ)	.
4c\	.	.	8gg\L	8cc\L	(16bb-/LL	.
.	.	.	.	.	16aa/)	.
.	.	.	8gg\J	8cc\J	(16bb-/	.
.	.	.	.	.	16aa/JJ)	.
4E\	.	.	4gg\	8cc\L	8bb-/L	.
.	.	.	.	8cc\J	(16ccc/L	.
.	.	.	.	.	16bb-/JJ)	.
=70	=70	=70	=70	=70	=70	=70
2.C/	2.r	8r	2.r	8cc\L	8aa/L	.
.	.	8ee\	.	8cc\J	(16bb-/L	.
.	.	.	.	.	16aa/JJ)	.
.	.	8ee\L	.	8cc\L	(16bb-/LL	.
.	.	.	.	.	16aa/)	.
.	.	8ee\J	.	8cc\J	(16bb-/	.
.	.	.	.	.	16aa/JJ)	.
.	.	4ee\	.	8cc\L	8bb-/L	.
.	.	.	.	8cc\J	(16ccc/L	.
.	.	.	.	.	16bb-/JJ)	.
=71	=71	=71	=71	=71	=71	=71
8FF/L	2.r	2.r	8r	4cc\	4aa/	.
8F/J	.	.	8cc\	.	.	.
4FF/	.	.	8cc\L	8ry	8r	.
.	.	.	8cc\J	8cc\	8aa/	.
4r	.	.	4cc\	8b-\L	8gg/L	.
.	.	.	.	8a\J	8ff/J	.
=72	=72	=72	=72	=72	=72	=72
2.r	2.r	2.r	2.r	8g\L	8ee/L	.
.	.	.	.	8f\	8dd/	.
.	.	.	.	8e\	8cc/	.
.	.	.	.	8d\	8b-/	.
.	.	.	.	8c\	8a/	.
.	.	.	.	8B-\J	8g/J	.
=73	=73	=73	=73	=73	=73	=73
8r	2.r	2.r	2.r	4A\	4f/	.
8F\L	.	.	.	.	.	.
8A\	.	.	.	8ry	8r	.
8C\	.	.	.	8cc\	8gg/	.
8F\	.	.	.	8a\L	8ff/L	.
8C\J	.	.	.	8cc\J	8gg/J	.
=74	=74	=74	=74	=74	=74	=74
8F\L	2.r	2.r	2.r	8cc\L	8aa/L	.
8C\	.	.	.	8cc\	8gg/	.
8F\	.	.	.	8a\	8ff/	.
8C\	.	.	.	8cc\	8gg/	.
8F\	.	.	.	8a\	8ff/	.
8C\J	.	.	.	8cc\J	8gg/J	.
=75	=75	=75	=75	=75	=75	=75
8F\L	2.r	2.r	2.r	8cc\L	8aa/L	.
8C\	.	.	.	8cc\	8gg/	.
8F\	.	.	.	8a\	8ff/	.
8C\	.	.	.	8cc\	8gg/	.
8F\	.	.	.	8a\	8ff/	.
8C\J	.	.	.	8cc\J	8gg/J	.
=76	=76	=76	=76	=76	=76	=76
8F\L	2.r	2.r	2.r	8cc\L	8aa/L	.
8C\J	.	.	.	8cc\J	8gg/J	.
4c\	.	.	.	2cc\	4.ggT/	4
4C/	.	.	.	.	.	3
.	.	.	.	.	8ff/	.
=77	=77	=77	=77	=77	=77	=77
8FF\L	2.r	2.r	2.r	4a\ 4cc\	4ff/	.
8F\	.	.	.	.	.	.
8A\	.	.	.	8ry	8r	.
8C\	.	.	.	8cc\	8gg/	.
8F\	.	.	.	8a\L	8ff/L	.
8C\J	.	.	.	8cc\J	8gg/J	.
=78	=78	=78	=78	=78	=78	=78
8F\L	2.r	2.r	2.r	8cc\L	8aa/L	.
8C\	.	.	.	8cc\	8gg/	.
8F\	.	.	.	8a\	8ff/	.
8C\	.	.	.	8cc\	8gg/	.
8F\	.	.	.	8a\	8ff/	.
8C\J	.	.	.	8cc\J	8gg/J	.
=79	=79	=79	=79	=79	=79	=79
8F\L	2.r	2.r	2.r	8cc\L	8aa/L	.
8C\	.	.	.	8cc\	8gg/	.
8F\	.	.	.	8a\	8ff/	.
8C\	.	.	.	8cc\	8gg/	.
8F\	.	.	.	8a\	8ff/	.
8C\J	.	.	.	8cc\J	8gg/J	.
=80	=80	=80	=80	=80	=80	=80
8F\L	2.r	2.r	2.r	8cc\L	8aa/L	.
8C\J	.	.	.	8cc\J	8gg/J	.
4c\	.	.	.	2cc\	4.ggT/	4
4C/	.	.	.	.	.	3
.	.	.	.	.	8ff/	.
=81	=81	=81	=81	=81	=81	=81
4F\	4a\	8ccc\L	8ccc\L	8a\L	4ff/ 4cc/	.
.	.	16ff\L	16ff\L	16ff\L	.	.
.	.	16gg\JJ	16gg\JJ	16gg\JJ	.	.
*	*	*	*	*v	*v	*
4F\	4a\	8aa\L	8aa\L	8aa\L	.
.	.	8gg\J	8gg\J	8gg\J	.
4F\	4a\	8aa\L	8aa\L	8aa\L	.
.	.	8ff\J	8ff\J	8ff\J	.
=82	=82	=82	=82	=82	=82
4E\	4g\	8ccc\L	8ccc\L	8ccc\L	6
.	.	16cc\L	16cc\L	16cc\L	.
.	.	16dd\JJ	16dd\JJ	16dd\JJ	.
4E\	4g\	8ee\L	8ee\L	8ee\L	.
.	.	8dd\J	8dd\J	8dd\J	.
4E\	4g\	8ee\L	8ee\L	8ee\L	.
.	.	8cc\J	8cc\J	8cc\J	.
=83	=83	=83	=83	=83	=83
4D\	4f\	8ff\L	8ff\L	8ff\L	7
.	.	16f\L	16f\L	16f\L	.
.	.	16g\JJ	16g\JJ	16g\JJ	.
4D\	4f\	8a/L	8a/L	8a/L	n6
.	.	8g/J	8g/J	8g/J	.
4D\	4f\	8a/L	8a/L	8a/L	.
.	.	8f/J	8f/J	8f/J	.
=84	=84	=84	=84	=84	=84
4C/	4e\	8cc\L	8cc\L	8cc\L	.
.	.	16ee\L	16ee\L	16ee\L	.
.	.	16ff\JJ	16ff\JJ	16ff\JJ	.
4C/	4e\	8gg\L	8gg\L	8gg\L	.
.	.	8aa\J	8aa\J	8aa\J	.
4C/	4e\	8bb-\L	8bb-\L	8bb-\L	.
.	.	8ccc\J	8ccc\J	8ccc\J	.
=85	=85	=85	=85	=85	=85
8FF\L	8c\L	8aa\L	8aa\L	8aa\L	.
16F\L	16f\L	16f\L	16f\L	16f\L	.
16G\JJ	16g\JJ	16g\JJ	16g\JJ	16g\JJ	.
8A\L	8a\L	8a/L	8a/L	8a/L	6
8G\J	8g\J	8g/J	8g/J	8g/J	.
8A\L	8a\L	8a/L	8a/L	8a/L	.
8F\J	8f\J	8f/J	8f/J	8f/J	.
=86	=86	=86	=86	=86	=86
8G\L	8g\L	8g/L	8g/L	8g/L	.
16A\L	16a\L	16a/L	16a/L	16a/L	.
16B-\JJ	16b-\JJ	16b-/JJ	16b-/JJ	16b-/JJ	.
8c\L	8cc\L	8cc\L	8cc\L	8cc\L	.
8B-\J	8b-\J	8b-\J	8b-\J	8b-\J	.
8c\L	8cc\L	8cc/L	8cc/L	8cc/L	.
8C\J	8c\J	8c/J	8c/J	8c/J	.
=87	=87	=87	=87	=87	=87
8D\L	8d\L	8d/L	8d/L	8d/L	.
16D\L	16d\L	16d/L	16d/L	16d/L	.
16E\JJ	16e\JJ	16e/JJ	16e/JJ	16e/JJ	.
8F\L	8f\L	8f/L	8f/L	8f/L	.
8E\J	8e\J	8e/J	8e/J	8e/J	.
8F\L	8f\L	8f/L	8f/L	8f/L	.
8D\J	8d\J	8d/J	8d/J	8d/J	.
=88	=88	=88	=88	=88	=88
8E\L	8e\L	8e/L	8e/L	8e/L	.
16F\L	16f\L	16f/L	16f/L	16f/L	.
16G\JJ	16g\JJ	16g/JJ	16g/JJ	16g/JJ	.
8A\L	8a\L	8a/L	8a/L	8a/L	.
8G\J	8g\J	8g/J	8g/J	8g/J	.
8A\L	8a\L	8a/L	8a/L	8a/L	.
8AA\J	8A\J	8A/J	8A/J	8A/J	.
=89	=89	=89	=89	=89	=89
8BB-/L	8B-/L	8B-/L	8B-/L	8B-/L	.
16BB-/L	16B-/L	16B-/L	16B-/L	16B-/L	.
16C/JJ	16c/JJ	16c/JJ	16c/JJ	16c/JJ	.
8D/L	8d\L	8d/L	8d/L	8d/L	.
8C/J	8c\J	8c/J	8c/J	8c/J	.
8D/L	8d\L	8d/L	8d/L	8d/L	.
8BB-/J	8B-\J	8B-/J	8B-/J	8B-/J	.
=90	=90	=90	=90	=90	=90
8C\L	8c\L	8c/L	8c/L	8c/L	.
16D\L	16d\L	16d/L	16d/L	16d/L	.
16E\JJ	16e\JJ	16e/JJ	16e/JJ	16e/JJ	.
8F\L	8f\L	8f/L	8f/L	8f/L	.
8G\J	8g\J	8g/J	8g/J	8g/J	.
8A\L	8a\L	8a/L	8a/L	8a/L	6
8F\J	8f\J	8f/J	8f/J	8f/J	.
=91	=91	=91	=91	=91	=91
8B-\L	8b-\L	8b-/L	8b-/L	8b-/L	.
8G\J	8g\J	8g/J	8g/J	8g/J	.
4c\	4cc\	4cc\	4cc\	4cc\	4
4C/	4c\	4c/	4c/	4c/	3
=92	=92	=92	=92	=92	=92
*	*strophe	*	*	*	*
*	*^	*	*	*	*
*	*S/S	*S/A	*	*	*	*
4F\	4f\	4e\	4f/	4f/	12ff\L	.
*	*S/fin	*S/fin	*	*	*	*
*	*v	*v	*	*	*	*
*	*S-	*	*	*	*
.	.	.	.	(24ff\L	.
.	.	.	.	24gg\)	.
.	.	.	.	(24aa\	.
.	.	.	.	24gg\JJ)	.
4r	4r	4r	12aa\L	12ff\L	.
.	.	.	12bb-\	12gg\	.
.	.	.	12gg\J	12ee\J	.
4r	4r	4r	12ff\L	12dd\L	.
.	.	.	12gg\	12ee\	.
.	.	.	12ee\J	12cc#\J	.
=93	=93	=93	=93	=93	=93
4D\	2.r	2.r	4ff\	12dd/L	.
.	.	.	.	(24cc/L	.
.	.	.	.	24b-/)	.
.	.	.	.	(24a/	.
.	.	.	.	24g/JJ)	.
4r	.	.	12a/L	12f/L	.
.	.	.	12b-/	12g/	.
.	.	.	12g/J	12e/J	.
4r	.	.	12a/L	12f/L	.
.	.	.	12b-/	12g/	.
.	.	.	12g/J	12e/J	.
=94	=94	=94	=94	=94	=94
4D\	2.r	2.r	4a/	12f/L	.
.	.	.	.	(24d/L	.
.	.	.	.	24e/)	.
.	.	.	.	(24f/	.
.	.	.	.	24g/JJ)	.
4r	.	.	4r	12a\L	.
.	.	.	.	12bn\	.
.	.	.	.	12cc#\J	.
4r	.	.	4r	12dd\L	.
.	.	.	.	12ee\	.
.	.	.	.	12ff\J	.
=95	=95	=95	=95	=95	=95
8AA\L	2.r	2.r	2.r	4ee\	#
8A\J	.	.	.	.	.
4AA/	.	.	.	8r	.
.	.	.	.	8cc#\ 8ee/	.
4r	.	.	.	8dd\L 8ff/L	.
.	.	.	.	8ee\J 8gg/J	.
=96	=96	=96	=96	=96	=96
2.D\	2.r	2.r	2.r	(4ff\ 4aa/	.
.	.	.	.	4gg\ 4bb-/)	.
.	.	.	.	4ff\ 4aa/	.
=97	=97	=97	=97	=97	=97
2.A\	2.r	2.r	2.r	(4ee\ 4gg/	.
.	.	.	.	4ff\ 4aa/)	.
.	.	.	.	4ee\ 4gg/	.
=98	=98	=98	=98	=98	=98
2.D\	2.r	2.r	2.r	(4dd\ 4ff/	.
.	.	.	.	4ee\ 4gg/)	.
.	.	.	.	4dd\ 4ff/	.
=99	=99	=99	=99	=99	=99
8AA\L	2.r	2.r	2.r	4cc#\ 4ee/	#
8A\J	.	.	.	.	.
4AA/	.	.	.	8r	.
.	.	.	.	8cc#\ 8ee/	.
4r	.	.	.	8cc#\ 8aa/L	.
.	.	.	.	8cc#\ 8ee/J	.
=100	=100	=100	=100	=100	=100
8r	2.r	2.r	2.r	4dd\ 4ff/	.
8d\	.	.	.	.	.
4D\	.	.	.	8r	.
.	.	.	.	8ff\ 8aa/	.
4r	.	.	.	8ff\ 8ddd/L	.
.	.	.	.	8ff\ 8aa/J	.
=101	=101	=101	=101	=101	=101
8r	2.r	2.r	2.r	4gg\ 4bb-/	.
8G\	.	.	.	.	.
4C/	.	.	.	8g/L	.
.	.	.	.	8ee\ 8gg/J	.
4r	.	.	.	8ee\ 8ccc/L	.
.	.	.	.	8ee\ 8gg/J	.
=102	=102	=102	=102	=102	=102
8r	2.r	2.r	2.r	4ff\ 4aa/	.
8F\	.	.	.	.	.
4BB-/	.	.	.	8f/L	.
.	.	.	.	8dd\ 8ff/J	.
4r	.	.	.	8dd\ 8bb-/L	.
.	.	.	.	8dd\ 8ff/J	.
=103	=103	=103	=103	=103	=103
8r	2.r	2.r	2.r	4ee\ 4gg/	.
8E\	.	.	.	.	.
4AA/	.	.	.	8A/L	#
.	.	.	.	8cc#\ 8ee/J	.
4r	.	.	.	8cc#\ 8aa/L	.
.	.	.	.	8cc#\ 8ee/J	.
=104	=104	=104	=104	=104	=104
*	*	*	*	*^	*
4D\	2.r	2.r	2.r	8dd\L	4ff/	.
.	.	.	.	8aa\J	.	.
4r	.	.	.	16ff\LL	2ry	.
.	.	.	.	16gg\	.	.
.	.	.	.	16ee\	.	.
.	.	.	.	16ff\JJ	.	.
4r	.	.	.	16dd\LL	.	.
.	.	.	.	16ee\	.	.
.	.	.	.	16cc\	.	.
.	.	.	.	16dd\JJ	.	.
=105	=105	=105	=105	=105	=105	=105
4G\	2.r	2.r	2.r	8b-/L	4g\	.
.	.	.	.	8dd/J	.	.
4r	.	.	.	16b-/LL	2ry	.
.	.	.	.	16cc/	.	.
.	.	.	.	16a/	.	.
.	.	.	.	16b-/JJ	.	.
4r	.	.	.	16g/LL	.	.
.	.	.	.	16a/	.	.
.	.	.	.	16f/	.	.
.	.	.	.	16g/JJ	.	.
=106	=106	=106	=106	=106	=106	=106
4C/	2.r	2.r	2.r	8e/L	4c\	.
.	.	.	.	8gg/J	.	.
4r	.	.	.	16ee\LL	2ry	.
.	.	.	.	16ff\	.	.
.	.	.	.	16dd\	.	.
.	.	.	.	16ee\JJ	.	.
4r	.	.	.	16cc\LL	.	.
.	.	.	.	16dd\	.	.
.	.	.	.	16b-\	.	.
.	.	.	.	16cc\JJ	.	.
=107	=107	=107	=107	=107	=107	=107
4F\	2.r	2.r	2.r	8a/L	4f\	.
.	.	.	.	8cc/J	.	.
4r	.	.	.	16a/LL	2ry	.
.	.	.	.	16b-/	.	.
.	.	.	.	16g/	.	.
.	.	.	.	16a/JJ	.	.
4r	.	.	.	16f/LL	.	.
.	.	.	.	16g/	.	.
.	.	.	.	16e/	.	.
.	.	.	.	16f/JJ	.	.
=108	=108	=108	=108	=108	=108	=108
4D\	2.r	2.r	2.r	8d/L	4B-\	6 5
.	.	.	.	8ff/J	.	.
4r	.	.	.	16dd\LL	2ry	.
.	.	.	.	16ee\	.	.
.	.	.	.	16cc\	.	.
.	.	.	.	16dd\JJ	.	.
4r	.	.	.	16bn\LL	.	.
.	.	.	.	16cc\	.	.
.	.	.	.	16a\	.	.
.	.	.	.	16b\JJ	.	.
=109	=109	=109	=109	=109	=109	=109
4E\	2.r	2.r	2.r	8bn/L	4g#\	#
.	.	.	.	8bbn/J	.	.
4r	.	.	.	16gg#\LL	2ry	.
.	.	.	.	16aa\	.	.
.	.	.	.	16ff\	.	.
.	.	.	.	16gg#\JJ	.	.
4r	.	.	.	16ee\LL	.	.
.	.	.	.	16ff\	.	.
.	.	.	.	16dd\	.	.
.	.	.	.	16ee\JJ	.	.
*	*	*	*	*v	*v	*
=110	=110	=110	=110	=110	=110
4AA/	2.r	2.r	2.r	8cc#\L 8ee/L	#
.	.	.	.	8cc#\ 8aa/	.
4r	.	.	.	8cc#\ 8ee/	.
.	.	.	.	8a\ 8ee/	.
4r	.	.	.	8e\ 8a/	.
.	.	.	.	8c#\J 8e/J	.
=111	=111	=111	=111	=111	=111
4AA/	2.r	2.r	2.r	8A\L 8e/L	.
.	.	.	.	8cc#\ 8aa/	.
4r	.	.	.	8cc#\ 8ee/	.
.	.	.	.	8a\ 8ee/	.
4r	.	.	.	8e\ 8a/	.
.	.	.	.	8c#\J 8e/J	.
=112	=112	=112	=112	=112	=112
8AA\L	2.r	2.r	2.r	4A\ 4e/	#
8A\J	.	.	.	.	.
4AA/	.	.	.	16r	.
.	.	.	.	16aa\LL	.
.	.	.	.	16ee\	.
.	.	.	.	16dd\JJ	.
4r	.	.	.	16cc#\LL	.
.	.	.	.	16a\	.
.	.	.	.	16dd\	.
.	.	.	.	16a\JJ	.
=113	=113	=113	=113	=113	=113
2.r	2.r	2.r	2.r	16ee\LL	.
.	.	.	.	16a\	.
.	.	.	.	16ff\	.
.	.	.	.	16a\JJ	.
.	.	.	.	16gg\LL	.
.	.	.	.	16a\	.
.	.	.	.	16aa\	.
.	.	.	.	16a\JJ	.
.	.	.	.	16bbn\LL	.
.	.	.	.	16a\	.
.	.	.	.	16ccc#\	.
.	.	.	.	16a\JJ	.
=114	=114	=114	=114	=114	=114
4D\	2.r	2.r	2.r	8ddd\L	.
.	.	.	.	8dd\J	.
4A\	.	.	.	4.eet\	4
4AA/	.	.	.	.	#
.	.	.	.	8dd\	.
=115	=115	=115	=115	=115	=115
8D\L	8a\L	[2.ff\	2.r	4dd\	.
16d\L	16f\L	.	.	.	.
16e\JJ	16g\JJ	.	.	.	.
8f\L	8a\L	.	.	4r	6
8e\J	8g\J	.	.	.	.
8f\L	8a\L	.	.	4r	.
8d\J	8f\J	.	.	.	.
=116	=116	=116	=116	=116	=116
8G\L	2d\	8ff\L]	[2.bb-\	[2.bb-\	7
16G\L	.	16b-\L	.	.	.
16A\JJ	.	16cc\JJ	.	.	.
8B-\L	.	8dd\L	.	.	.
8A\J	.	8cc\J	.	.	.
8B-\L	4b-\	8dd\L	.	.	.
8G\J	.	8b-\J	.	.	.
=117	=117	=117	=117	=117	=117
8c\L	2g\	[2.ee\	8bb-\L]	8bb-\L]	7
16c\L	.	.	16ee\L	16ee\L	.
16d\JJ	.	.	16ff\JJ	16ff\JJ	.
8e\L	.	.	8gg\L	8gg\L	.
8d\J	.	.	8ff\J	8ff\J	.
8e\L	4e\	.	8gg\L	8gg\L	.
8c\J	.	.	8ee\J	8ee\J	.
=118	=118	=118	=118	=118	=118
8F\L	2c\	8ee\L]	[2.aa\	[2.aa\	7
16F\L	.	16a\L	.	.	.
16G\JJ	.	16b-\JJ	.	.	.
8A\L	.	8cc\L	.	.	.
8G\J	.	8b-\J	.	.	.
8A\L	4a\	8cc\L	.	.	.
8F\J	.	8a\J	.	.	.
=119	=119	=119	=119	=119	=119
8B-\L	2f\	[2.dd\	8aa\L]	8aa\L]	7
16B-\L	.	.	16dd\L	16dd\L	.
16c\JJ	.	.	16ee\JJ	16ee\JJ	.
8d\L	.	.	8ff\L	8ff\L	.
8c\J	.	.	8ee\J	8ee\J	.
8d\L	4d\	.	8ff\L	8ff\L	.
8B-\J	.	.	8dd\J	8dd\J	.
=120	=120	=120	=120	=120	=120
8E\L	2B-/	8dd\L]	[2.gg\	[2.gg\	7
16E\L	.	16g\L	.	.	.
16F\JJ	.	16a\JJ	.	.	.
8G\L	.	8b-/L	.	.	.
8F\J	.	8a/J	.	.	.
8G\L	4g\	8b-/L	.	.	.
8E\J	.	8g/J	.	.	.
=121	=121	=121	=121	=121	=121
8AA\L	2e\	[2.cc#\	8gg\L]	8gg\L]	7 #
16A\L	.	.	16cc#\L	16cc#\L	.
16Bn\JJ	.	.	16dd\JJ	16dd\JJ	.
8c#\L	.	.	8ee\L	8ee\L	.
8B\J	.	.	8dd\J	8dd\J	.
8c#\L	4g\	.	8ee\L	8ee\L	.
8A\J	.	.	8cc#\J	8cc#\J	.
=122	=122	=122	=122	=122	=122
8AA\L	2e\	8cc#\L]	(4g/	(4g/	7 #
16A\L	.	16cc#\L	.	.	.
16Bn\JJ	.	16dd\JJ	.	.	.
8c#\L	.	8ee\L	4cc#\)	4cc#\)	.
8B\J	.	8dd\J	.	.	.
8c#\L	4g\	8ee\L	4ee\	4ee\	.
8A\J	.	8cc#\J	.	.	.
=123	=123	=123	=123	=123	=123
8AA\L	2e\	(4g/	8gg\L	8gg\L	7 #
16A\L	.	.	16cc#\L	16cc#\L	.
16Bn\JJ	.	.	16dd\JJ	16dd\JJ	.
8c#\L	.	4cc#\)	8ee\L	8ee\L	.
8B\J	.	.	8dd\J	8dd\J	.
8c#\L	4g\	4ee\	8ee\L	8ee\L	.
8A\J	.	.	8cc#\J	8cc#\J	.
=124	=124	=124	=124	=124	=124
8AA\L	2e\	8gg\L	(4g/	(4g/	7 #
16A\L	.	16cc#\L	.	.	.
16Bn\JJ	.	16dd\JJ	.	.	.
8c#\L	.	8ee\L	4cc#\)	4cc#\)	.
8B\J	.	8dd\J	.	.	.
8c#\L	4g\	8ee\L	4ee\	4ee\	.
8A\J	.	8cc#\J	.	.	.
=125	=125	=125	=125	=125	=125
4AA/	4c#\	8ee\L	8gg\L	8gg\L	.
.	.	16cc#\L	16ee\L	16ee\L	.
.	.	16dd\JJ	16ff\JJ	16ff\JJ	.
4AA/	4c#\	8ee\L	8gg\L	8gg\L	.
.	.	8dd\J	8ff\J	8ff\J	.
4AA/	4c#\	8ee\L	8gg\L	8gg\L	.
.	.	8cc#\J	8ee\J	8ee\J	.
=126	=126	=126	=126	=126	=126
4D\	4A/	4dd\	4ff\	4ff\	.
4GG/	4b-\	4ee\	4gg\	4gg\	6 5
4AA/	4a\	4cc#t\	4eet\	4eet\	#
=127	=127	=127	=127	=127	=127
2.D\	2.a\	2.dd\	2.dd\	2.dd\	.
==|!	==|!	==|!	==|!	==|!	==|!
*-	*-	*-	*-	*-	*-
!!!CDT: 1678/3/4/-1741/7/28
!!!OCY: Italia
!!!ODE: Count Wenzeslaus von Morzin of Bohemia; Count Wenceslas of Morzin
!!!ODT: 1725///
!!!OPC: Venezia; Venice
!!!AGN: concerto
!!!AST: baroque
!!!AMT: simple triple
!!!PPR: Michel-Charles Le Ce`ne
!!!PC#: Le Cene No. 521
!!!PDT: 1725///
!!!PPP: Amsterdam
!!!SCT: RV 242
!!!SMA1: The cooperation of the following libraries is gratefully acknowledged:
!!!SMA2: Saechsische Landesbibliothek, Dresden; Biblioteca Nazionale
!!!SMA3: Universitaria, Turin; Henry Watson Music Library, Manchester.
!!!YOR: New York: Dover Publications, Inc. 1995
!!!AIN: cello cemba viola violn
!!!EEV: 1.0
!!!RDT: 1994/4/27/
!!!YER: 1996/10/31/
!!!YEP: Center for Computer Assisted Research in the Humanities
!!!YEN: United States of America
!!!EFL: 3/3
!!!ENC: Edmund Correia, Jr.
!!!EED: Eleanor Selfridge-Field
